!!!COM: ricky-nelson
!!!OTL: poor-little-fool
!!!RNB: hooktheoryid: Kyvmr_BvgOW
**kern	**text
*clefG2	*
*k[]	*
*M4/4	*
=1	=1
2..r	.
8e	.
=2	=2
8g	C
16g	.
8.g	.
16g	.
[16aL	.
8a]J	Am
8a	.
16r	.
16e	.
16e	.
[16f	.
=3	=3
8f]	F
8f	.
16f	.
8f	.
[16gL	.
8.g]J	G
4r	.
16e	.
=4	=4
8g	C
16g	.
8.g	.
16g	.
[16aL	.
8a]J	Am
8.a	.
16a	.
16g	.
[16f	.
=5	=5
8f]	F
8f	.
16r	.
16f	.
16f	.
[16gL	.
8.g]J	G
16r	.
16g	.
16e	.
16d	.
16c	.
=6	=6
4c	C
8r	.
8cc	.
8a	Am
4.r	.
=7	=7
8r	F
8.d	.
16f	.
16a	.
16g	.
16a	G
8.g	.
8r	.
8e	.
=8	=8
8c	C
8e	.
8e	.
8r	.
8e	Am
16e	.
16e	.
8e	.
8r	.
=9	=9
8f	F
16f	.
16f	.
8f	.
8f	.
4.g	G
8r	.
*-	*-